X:1
T:Title
%%score 1 { 2 | 3 }
L:1/8
Q:1/4=110
M:4/4
K:G
V:1 treble nm="Grand Piano, Soprano"
V:2 bass nm="Choir Pad, Oaxaca, Ira Sankey, 1889"
V:3 bass 
V:1
 [DB]4 [Ec]2 [DB]2 | [EA]2 [EG]2 [DF]2 [CE]2 | [B,D]4 [DB]2 [DG]2 | [DA]6 z2 | [DB]4 [Ec]2 [DB]2 | %5
w: By~Ira~David~Sankey,~1887 * *|||||
 [EA]2 [EG]2 [DF]2 [CE]2 | [B,D]2 [DG]2 [DG]2 [FA]2 | G6 z2 | [DA]4 [DA]2 D2 | %9
w: ||||
 [DG]2 [DA]2 [DB]2 [Gd]2 | [Gd]4 [E^c]2 [Ec]2 | [Fd]6 z2 | [GB]4 [=Fd]2 [Ec]2 | %13
w: ||||
 [DB]2 [B,A]2 [B,G]2 [CE]2 | D2 B,2 [B,G]2 [CA]2 | [B,G]8 |] %16
w: |||
V:2
 G,4 G,2 G,2 | G,2 G,2 G,2 G,2 | G,4 G,2 G,2 | F,6 z2 | G,4 G,2 G,2 | G,2 G,2 G,2 G,2 | %6
 G,2 B,2 B,2 C2 | B,6 z2 | F,4 F,2 A,2 | G,2 F,2 G,2 B,2 | B,4 A,2 A,2 | A,6 z2 | G,4 G,2 G,2 | %13
 F,2 F,2 G,2 G,2 | B,2 G,2 G,2 F,2 | G,8 |] %16
V:3
 z8 | C,2 C,2 C,2 C,2 | G,,4 G,,2 B,,2 | D,6 z2 | z8 | C,2 C,2 C,2 C,2 | D,4 D,2 D,2 | G,,6 z2 | %8
 D,4 D,2 C,2 | B,,2 D,2 z2 G,2 | E,4 z2 A,,2 | D,6 z2 | G,,4 B,,2 C,2 | D,2 ^D,2 E,2 C,2 | %14
 D,4 E,2 D,2 | G,,8 |] %16

